X:1
T:The Liberty Bell
T:THE LIBERTY BELL MARCH (MONTY PYTHON'S FLYING CIRCUS THEME)
T:JOHN  PHILIP SOUSA
T:Public Domain
C:John Philip Sousa
Z:Public Domain
%%score ( 1 2 )
L:1/8
Q:1/4=180
M:none
K:C
V:1 bass nm="Piano"
V:2 bass 
V:1
 (F,2 E, D,2 _D, C,2 | _C, !4!_B,,2 A,,) .G,,.A,,.B,, A,,- | A,, G,, C,, z z2 z C, | %3
 A,, z A,, A,,_A,,=A,, F, z | C, C, z A,,!<(! _B,,2 B,, B,,- | B,,!<)! C,!>(! D,3-!>)! D,2 ^A,, | %6
 G,, z G,, G,,_G,,=G,, E, z | D, D, z _B,, A,, z!<(! A,, A,, | z _B,,!<)! C,3- C,2 C, | %9
 A,, z A,, A,,_A,,=A,, A, z | F, F, z C, B,, z G,!<(! G, | z G, G,3-!<)! G,2 F, | %12
!f! (!>!E, z G, G,_G,=G,) (!>!D, z | G, G,_G,=G,) !>!C, z B,, !>!C, | z B,,C,- C,2 z (A,,_A,, | %15
A,, D,2 C, A,,3 F,,-) | F,,2 (D,,3 G,,3 | F,,3- F,,2) F,, (G,,A,, |_B,, E,2 D,) C,3 F,- | %19
 F,2 E,3 D,3 | C,3- C,2 C, (D, z | D,{/E,} D,_D,=D,) E,3 E,- | E,2!<(! F,2 F,{/A,} (G,!<)!F,)G, | %23
 z6 G, z | F,!>(! D, z _B,,!>)! A,,3 F,,- | F,,2 G,,3 E,,3 | F,,3- F,,2 z z2 |] %27
V:2
 x8 | x8 | x8 | x8 | x8 | x8 | x8 | x8 | x8 | x8 | x8 | x8 | x8 | x8 | x8 | x8 | x8 | x6 G,,2 | %18
 x8 | x8 | x8 | x8 | x8 | A,3- A,2 A, x2 | x8 | x8 | x8 |] %27

